X: 21236
T: Keel Row, The
R: strathspey
M: 4/4
K: Gmajor
|:c/|(3BcB G>B c2 A>c|(3BcB G>B A>F D2|(3BcB (3GAB c>DA>D|B>GA>D G2- G3/2:|
|:c/|B<d d2 (3efe d>c|B2 G>B A>F D2|B<d d2 (3efe d2|B>GA>D G2- G3/2:|

